svg/black/zen.svg

<?xml version="1.0" encoding="UTF-8"?>
<svg width="32px" height="32px" viewBox="0 0 32 32" version="1.1" xmlns="http://www.w3.org/2000/svg" xmlns:xlink="http://www.w3.org/1999/xlink">
    <title>svg/black/zen</title>
    <g id="black/zen" stroke="none" stroke-width="1" fill="none" fill-rule="evenodd">
        <g id="Group" fill="#000000" fill-rule="nonzero">
            <path d="M16,-3.3553407e-15 C24.836556,-3.3553407e-15 32,7.163444 32,16 C32,24.836556 24.836556,32 16,32 C7.163444,32 0,24.836556 0,16 C0,7.163444 7.163444,-3.3553407e-15 16,-3.3553407e-15 Z M24.8,9.56793893 L23.0198473,12.3389313 C23.5740458,13.4137405 23.8763359,14.6396947 23.8763359,15.9328244 C23.8763359,20.3328244 20.3160305,23.8763359 15.9328244,23.8763359 C14.6396947,23.8763359 13.4305344,23.5740458 12.3557252,23.0198473 L9.56793893,24.8167939 C11.3648855,26.0931298 13.5480916,26.8656489 15.9160305,26.8656489 C21.9450382,26.8656489 26.848855,21.978626 26.848855,15.9328244 C26.848855,13.6805768 26.1747668,11.6080859 25.0105082,9.87097483 L24.8,9.56793893 Z M15.9328244,5 C9.8870229,5 5,9.8870229 5,15.9328244 C5,18.3679389 5.78931298,20.6015267 7.13282443,22.4152672 C7.65343511,21.4748092 8.27480916,20.6183206 8.99694656,19.8458015 C8.99694656,19.8458015 10.0717557,18.7206107 10.8946565,18.1496183 C13.0778626,16.5541985 15.7480916,15.6305344 18.6198473,15.6305344 C19.4175573,15.6305344 20.1919423,15.7005089 20.9527212,15.840458 L21.4076336,15.9328244 C21.4076336,12.9099237 18.9557252,10.4412214 15.9160305,10.4412214 C12.8931298,10.4412214 10.4412214,12.8931298 10.4412214,15.9328244 C10.4412214,16.1007634 10.4486853,16.2612383 10.4636132,16.4242013 L10.4916031,16.6717557 L10.4916031,16.6717557 C9.11450382,17.729771 8.45954198,18.5526718 8.4259542,18.5862595 C8.14045802,17.7633588 7.97251908,16.8732824 7.97251908,15.9496183 C7.97251908,11.5496183 11.5328244,8.00610687 15.9160305,8.00610687 C17.2091603,8.00610687 18.4183206,8.30839695 19.4931298,8.86259542 L22.2641221,7.06564885 C20.4839695,5.75572519 18.2839695,5 15.9328244,5 Z M18.6870229,16.621374 C15.9664122,16.621374 13.4305344,17.4946565 11.3816794,18.9725191 C12.3557252,20.4335878 14.0351145,21.3908397 15.9328244,21.3908397 C18.6198473,21.3908397 20.8534351,19.459542 21.3236641,16.9068702 C20.4671756,16.7221374 19.5938931,16.621374 18.6870229,16.621374 Z" id="Combined-Shape"></path>
        </g>
    </g>
</svg>

<svg width="32" height="32" viewBox="0 0 32 32" xmlns="http://www.w3.org/2000/svg"><path d="M16 0c8.837 0 16 7.163 16 16s-7.163 16-16 16S0 24.837 0 16 7.163 0 16 0zm8.8 9.568l-1.78 2.77a7.835 7.835 0 01.856 3.595c0 4.4-3.56 7.943-7.943 7.943a7.755 7.755 0 01-3.577-.856l-2.788 1.797c1.797 1.276 3.98 2.049 6.348 2.049 6.029 0 10.933-4.887 10.933-10.933a10.82 10.82 0 00-1.838-6.062l-.211-.303zM15.933 5A10.923 10.923 0 005 15.933c0 2.435.79 4.669 2.133 6.482.52-.94 1.142-1.797 1.864-2.57 0 0 1.075-1.124 1.898-1.695a13.041 13.041 0 017.725-2.52c.798 0 1.572.07 2.333.21l.455.093a5.494 5.494 0 00-5.492-5.492 5.48 5.48 0 00-5.452 5.983l.028.248c-1.377 1.058-2.032 1.88-2.066 1.914a8.049 8.049 0 01-.453-2.636c0-4.4 3.56-7.944 7.943-7.944 1.293 0 2.502.302 3.577.857l2.771-1.797A10.658 10.658 0 0015.933 5zm2.754 11.621c-2.72 0-5.256.874-7.305 2.352a5.458 5.458 0 004.55 2.418 5.482 5.482 0 005.392-4.484 12.434 12.434 0 00-2.637-.286z"/></svg>
